X:8
T:Reel 8
M:4/4
K:Gmaj
L:1/8
e|dBBd efge|dBGB AGEG|d2Bd gage|dega bgg2|d2dB GBdf|g2 (3fed eaaf|g2df edef|gedc BGG|g|bgdg bc'd'b|c'bc'g fgac'|bgdg bgd'g|e'c'd'c' bggc'| (3bc'b  (3bag  (3efg dB|cedB AGED|DADG FGAB|cedc BGG|
